fs/table_stack_below_24_filled.svg

<svg viewBox="0 0 24 24" fill="none" xmlns="http://www.w3.org/2000/svg" height="1em" width="1em">
  <path d="M9.5 9.5L9.5 14.5H14.5L14.5 9.5L9.5 9.5ZM8 9.5L8 14.5H3.75C3.55109 14.5 3.36032 14.421 3.21967 14.2803C3.07902 14.1397 3 13.9489 3 13.75V9.5L8 9.5ZM9.5 8L14.5 8L14.5 3H9.5L9.5 8ZM16 9.5L16 14.5L20.25 14.5C20.6642 14.5 21 14.1642 21 13.75L21 9.5L16 9.5ZM21 8L16 8L16 3L17.75 3C19.5449 3 21 4.45508 21 6.25V8ZM8 8L3 8V6.25C3 4.45507 4.45508 3 6.25 3H8L8 8ZM3.75 19.5C3.33579 19.5 3 19.8358 3 20.25C3 20.6642 3.33579 21 3.75 21H20.25C20.6642 21 21 20.6642 21 20.25C21 19.8358 20.6642 19.5 20.25 19.5H3.75Z" fill="#212121"/>
</svg>

<svg viewBox="0 0 24 24" fill="none" xmlns="http://www.w3.org/2000/svg" height="1em" width="1em">
  <path d="M9.5 9.5v5h5v-5h-5ZM8 9.5v5H3.75a.75.75 0 0 1-.75-.75V9.5h5ZM9.5 8h5V3h-5v5ZM16 9.5v5h4.25a.75.75 0 0 0 .75-.75V9.5h-5ZM21 8h-5V3h1.75A3.25 3.25 0 0 1 21 6.25V8ZM8 8H3V6.25A3.25 3.25 0 0 1 6.25 3H8v5ZM3.75 19.5a.75.75 0 0 0 0 1.5h16.5a.75.75 0 0 0 0-1.5H3.75Z" fill="#212121"/>
</svg>
